svgs/light/video-arrow-down-left.svg

<svg xmlns="http://www.w3.org/2000/svg" viewBox="0 0 576 512"><!--! Font Awesome Pro 6.6.0 by @fontawesome - https://fontawesome.com License - https://fontawesome.com/license (Commercial License) Copyright 2024 Fonticons, Inc. --><path d="M320 96c17.7 0 32 14.3 32 32l0 256c0 17.7-14.3 32-32 32L64 416c-17.7 0-32-14.3-32-32l0-256c0-17.7 14.3-32 32-32l256 0zM64 64C28.7 64 0 92.7 0 128L0 384c0 35.3 28.7 64 64 64l256 0c35.3 0 64-28.7 64-64l0-47.2 0-161.6 0-47.2c0-35.3-28.7-64-64-64L64 64zM416 354.4l103.4 56.9c5.6 3.1 12 4.7 18.4 4.7c21.1 0 38.2-17.1 38.2-38.2l0-243.6c0-21.1-17.1-38.2-38.2-38.2c-6.4 0-12.8 1.6-18.4 4.7L416 157.6l0 36.5 118.8-65.4c.9-.5 1.9-.8 3-.8c3.4 0 6.2 2.8 6.2 6.2l0 243.6c0 3.4-2.8 6.2-6.2 6.2c-1 0-2.1-.3-3-.8L416 317.9l0 36.5zM224 352c8.8 0 16-7.2 16-16s-7.2-16-16-16l-73.4 0L283.3 187.3c6.2-6.2 6.2-16.4 0-22.6s-16.4-6.2-22.6 0L128 297.4l0-73.4c0-8.8-7.2-16-16-16s-16 7.2-16 16l0 112c0 8.8 7.2 16 16 16l112 0z"/></svg>

<svg xmlns="http://www.w3.org/2000/svg" viewBox="0 0 576 512"><!--! Font Awesome Pro 6.4.2 by @fontawesome - https://fontawesome.com License - https://fontawesome.com/license (Commercial License) Copyright 2023 Fonticons, Inc. --><path d="M320 96c17.7 0 32 14.3 32 32V384c0 17.7-14.3 32-32 32H64c-17.7 0-32-14.3-32-32V128c0-17.7 14.3-32 32-32H320zM64 64C28.7 64 0 92.7 0 128V384c0 35.3 28.7 64 64 64H320c35.3 0 64-28.7 64-64V336.8 175.2 128c0-35.3-28.7-64-64-64H64zM416 354.4l103.4 56.9c5.6 3.1 12 4.7 18.4 4.7c21.1 0 38.2-17.1 38.2-38.2V134.2c0-21.1-17.1-38.2-38.2-38.2c-6.4 0-12.8 1.6-18.4 4.7L416 157.6v36.5l118.8-65.4c.9-.5 1.9-.8 3-.8c3.4 0 6.2 2.8 6.2 6.2V377.8c0 3.4-2.8 6.2-6.2 6.2c-1 0-2.1-.3-3-.8L416 317.9v36.5zM224 352c8.8 0 16-7.2 16-16s-7.2-16-16-16H150.6L283.3 187.3c6.2-6.2 6.2-16.4 0-22.6s-16.4-6.2-22.6 0L128 297.4V224c0-8.8-7.2-16-16-16s-16 7.2-16 16V336c0 8.8 7.2 16 16 16H224z"/></svg>
